packages/katcn/src/icons/svg/frame.svg

<svg width="24" height="24" viewBox="0 0 24 24" fill="none" xmlns="http://www.w3.org/2000/svg">
<path d="M19 6.50704V5.38028C19 3.50235 17.6 2 15.85 2H8.15C6.4 2 5 3.50235 5 5.38028V6.50704C5 7.7277 5.525 8.76056 6.4875 9.41784L9.2 11.2958C9.6375 11.5775 10.1625 11.4836 10.425 11.0141C10.6875 10.4507 10.6 9.88732 10.1625 9.60563L7.45 7.7277C7.0125 7.53991 6.75 7.07042 6.75 6.50704V5.38028C6.75 4.53521 7.3625 3.87793 8.15 3.87793H15.85C16.6375 3.87793 17.25 4.53521 17.25 5.38028V6.50704C17.25 7.07042 16.9875 7.53991 16.55 7.8216L11.5625 11.2019L6.4875 14.5822C5.525 15.1455 5 16.2723 5 17.493V18.6197C5 20.4977 6.4 22 8.15 22H15.85C17.6 22 19 20.4977 19 18.6197V17.493C19 16.2723 18.475 15.2394 17.5125 14.5822L13.6625 11.9531L17.5125 9.32394C18.475 8.76056 19 7.7277 19 6.50704ZM17.25 17.493V18.6197C17.25 19.4648 16.6375 20.1221 15.85 20.1221H8.15C7.3625 20.1221 6.75 19.4648 6.75 18.6197V17.493C6.75 16.9296 7.0125 16.4601 7.45 16.1784L12 13.0798L16.55 16.1784C16.9875 16.4601 17.25 16.9296 17.25 17.493Z" fill="black"/>
</svg>

<svg xmlns="http://www.w3.org/2000/svg" fill="none" viewBox="0 0 24 24"><path fill="#000" d="M19 6.507V5.38C19 3.502 17.6 2 15.85 2h-7.7C6.4 2 5 3.502 5 5.38v1.127c0 1.22.525 2.254 1.487 2.91l2.713 1.88c.438.282.963.188 1.225-.282.262-.563.175-1.127-.263-1.408L7.45 7.728c-.437-.188-.7-.658-.7-1.221V5.38c0-.845.612-1.502 1.4-1.502h7.7c.787 0 1.4.657 1.4 1.502v1.127c0 .563-.262 1.033-.7 1.315l-4.988 3.38-5.074 3.38C5.525 15.145 5 16.272 5 17.493v1.127C5 20.498 6.4 22 8.15 22h7.7C17.6 22 19 20.498 19 18.62v-1.127c0-1.22-.525-2.254-1.488-2.91l-3.85-2.63 3.85-2.63C18.476 8.762 19 7.729 19 6.508m-1.75 10.986v1.127c0 .845-.613 1.502-1.4 1.502h-7.7c-.788 0-1.4-.657-1.4-1.502v-1.127c0-.563.263-1.033.7-1.315L12 13.08l4.55 3.098c.438.282.7.752.7 1.315"/></svg>
